X: 1
T: Davy Nick Nack
O: Trad
R: hornpipe, march
Z: 2016 by John Chambers <jc:trillian.mit.edu>
S: Paddledoo Collection
S: from copy in the Concord Slow Scottish Jam collection.
M: C|
L: 1/8
K: G
   D2 |\
"G"GFGA B2B2 | GFGA B2B2 | "D7"dcBc "/C"A2A2 | "/B"dcBc "/A"A2A2 |
"G"GFGA B2B2 | GFGA B2B2 | "C"dcBc "D7"AcBA | "G"G2B2 G2 :|
|: B2 |\
"G"d3c  B2d2 | g2g2 d4 | "D7"dcBc "/C"A2A2 | "/B"dcBc "/A"A2A2 |
"G"d3c  B2d2 | g2g2 d4 | "C"dcBc "D7"AcBA | "G"G2B2 G2 :|
